images/svg/basket-item-navigation.svg

<svg width="21" height="22" viewBox="0 0 21 22" fill="none" xmlns="http://www.w3.org/2000/svg">
<circle cx="10.5" cy="11" r="10.5" fill="white"/>
<path d="M7.3996 15.5C7.30627 15.5 7.22693 15.472 7.1616 15.416C7.1056 15.3507 7.0776 15.2713 7.0776 15.178V14.73C7.0776 14.646 7.10093 14.5527 7.1476 14.45C7.19427 14.3473 7.2876 14.2353 7.4276 14.114L10.3956 11.146C10.8716 10.7447 11.2449 10.404 11.5156 10.124C11.7956 9.83467 11.9916 9.55933 12.1036 9.298C12.2249 9.03667 12.2856 8.766 12.2856 8.486C12.2856 7.954 12.1363 7.534 11.8376 7.226C11.5389 6.90867 11.0956 6.75 10.5076 6.75C10.1343 6.75 9.81227 6.82933 9.5416 6.988C9.27094 7.13733 9.05627 7.34733 8.8976 7.618C8.74827 7.87933 8.65027 8.178 8.6036 8.514C8.58493 8.63533 8.5336 8.71933 8.4496 8.766C8.37494 8.81267 8.30494 8.836 8.2396 8.836H7.5116C7.4276 8.836 7.3576 8.81267 7.3016 8.766C7.2456 8.71 7.2176 8.64467 7.2176 8.57C7.22693 8.21533 7.3016 7.86067 7.4416 7.506C7.5816 7.142 7.78693 6.81533 8.0576 6.526C8.3376 6.23667 8.67827 6.00333 9.0796 5.826C9.49027 5.63933 9.96627 5.546 10.5076 5.546C11.2449 5.546 11.8469 5.68133 12.3136 5.952C12.7896 6.21333 13.1396 6.56333 13.3636 7.002C13.5876 7.44067 13.6996 7.92133 13.6996 8.444C13.6996 8.85467 13.6296 9.23267 13.4896 9.578C13.3496 9.914 13.1443 10.2453 12.8736 10.572C12.6123 10.8893 12.2856 11.216 11.8936 11.552L9.2056 14.282H13.5736C13.6763 14.282 13.7556 14.31 13.8116 14.366C13.8769 14.422 13.9096 14.5013 13.9096 14.604V15.178C13.9096 15.2713 13.8769 15.3507 13.8116 15.416C13.7556 15.472 13.6763 15.5 13.5736 15.5H7.3996Z" fill="black"/>
</svg>

<svg width="21" height="22" fill="none" xmlns="http://www.w3.org/2000/svg"><circle cx="10.5" cy="11" r="10.5" fill="#fff"/><path d="M7.4 15.5a.35.35 0 0 1-.24-.08.35.35 0 0 1-.08-.24v-.45c0-.08.02-.18.07-.28.04-.1.14-.21.28-.34l2.97-2.96c.47-.4.84-.75 1.12-1.03.28-.29.47-.56.58-.82.12-.26.19-.53.19-.81 0-.54-.15-.96-.45-1.26-.3-.32-.74-.48-1.33-.48-.38 0-.7.08-.97.24-.27.15-.48.36-.64.63-.15.26-.25.56-.3.9-.02.12-.07.2-.15.25a.4.4 0 0 1-.21.07h-.73a.32.32 0 0 1-.2-.07.27.27 0 0 1-.1-.2 3.1 3.1 0 0 1 1.87-2.74c.41-.2.89-.28 1.43-.28.73 0 1.34.13 1.8.4.48.26.83.61 1.05 1.05a3.12 3.12 0 0 1 .13 2.58c-.14.33-.35.67-.62 1-.26.3-.58.64-.98.97l-2.68 2.73h4.36c.1 0 .19.03.24.09.07.05.1.13.1.23v.58c0 .1-.03.17-.1.24-.05.05-.13.08-.24.08H7.4Z" fill="#000"/></svg>
